build/category/ColorSolid.svg

<svg xmlns="http://www.w3.org/2000/svg" fill="none" viewBox="0 0 24 24" focusable="false"><path d="M0 0H24V24H0z"/><path fill="#74767B" fill-rule="evenodd" d="M11.3502 7.61672C11.3502 7.76452 11.2422 7.88913 11.0979 7.92092C10.613 8.0277 10.1597 8.21875 9.75409 8.47792C9.62959 8.55748 9.4652 8.54566 9.36073 8.44119L6.58917 5.66963C6.53074 5.6112 6.50161 5.53501 6.50161 5.45942C6.50161 5.37535 6.53764 5.29202 6.60947 5.23471C7.84968 4.24518 9.36803 3.58954 11.0284 3.40392C11.2018 3.38454 11.3502 3.52267 11.3502 3.69711L11.3502 7.61672ZM14.6397 8.44124C14.5352 8.54572 14.3708 8.55754 14.2463 8.47797C13.8408 8.21878 13.3874 8.02772 12.9025 7.92093C12.7582 7.88914 12.6502 7.76453 12.6502 7.61672L12.6502 3.69711C12.6502 3.52267 12.7986 3.38454 12.972 3.40392C14.6324 3.58955 16.1508 4.2452 17.391 5.23476C17.4628 5.29207 17.4988 5.3754 17.4988 5.45947C17.4988 5.53506 17.4697 5.61125 17.4113 5.66968L14.6397 8.44124ZM8.44146 9.3604C8.5006 9.41953 8.53004 9.49786 8.53004 9.57728C8.53004 9.63819 8.51272 9.69974 8.47819 9.75378C8.21898 10.1594 8.0279 10.6127 7.92111 11.0977C7.88933 11.242 7.76471 11.35 7.61691 11.35L3.69735 11.35C3.53391 11.35 3.40234 11.2197 3.40234 11.0607C3.40234 11.05 3.40294 11.0392 3.40416 11.0282C3.58978 9.36779 4.24544 7.84939 5.23501 6.60916C5.34385 6.47275 5.54652 6.46546 5.66992 6.58886L8.44146 9.3604ZM16.3834 11.35C16.2356 11.35 16.111 11.242 16.0792 11.0977C15.9724 10.6127 15.7814 10.1594 15.5222 9.75386C15.4877 9.69982 15.4704 9.63827 15.4704 9.57737C15.4704 9.49794 15.4998 9.41962 15.5589 9.36049L18.3305 6.58892C18.4539 6.46552 18.6566 6.47281 18.7654 6.60923C19.755 7.84944 20.4106 9.36782 20.5962 11.0282C20.5974 11.0392 20.598 11.05 20.598 11.0607C20.598 11.2197 20.4665 11.35 20.303 11.35L16.3834 11.35ZM15.559 14.6394C15.4998 14.5803 15.4704 14.502 15.4704 14.4226C15.4704 14.3617 15.4877 14.3001 15.5222 14.2461C15.7814 13.8405 15.9724 13.3872 16.0792 12.9023C16.111 12.758 16.2356 12.65 16.3834 12.65L20.303 12.65C20.4665 12.65 20.598 12.7803 20.598 12.9393C20.598 12.95 20.5974 12.9608 20.5962 12.9718C20.4106 14.6321 19.7549 16.1505 18.7654 17.3907C18.6566 17.5271 18.4539 17.5344 18.3305 17.411L15.559 14.6394ZM8.47816 14.2461C8.5127 14.3002 8.53002 14.3617 8.53002 14.4226C8.53002 14.5021 8.50056 14.5804 8.44143 14.6395L5.66993 17.411C5.54653 17.5344 5.34386 17.5271 5.23501 17.3907C4.24546 16.1505 3.58981 14.6322 3.40417 12.9718C3.40295 12.9608 3.40235 12.95 3.40235 12.9393C3.40235 12.7803 3.53392 12.65 3.69736 12.65L7.61691 12.65C7.76471 12.65 7.88933 12.758 7.92111 12.9023C8.0279 13.3872 8.21896 13.8406 8.47816 14.2461ZM12.6502 16.3832C12.6502 16.2354 12.7582 16.1108 12.9025 16.079C13.3875 15.9722 13.8408 15.7812 14.2464 15.522C14.3709 15.4424 14.5353 15.4542 14.6398 15.5587L17.4113 18.3302C17.4697 18.3886 17.4988 18.4648 17.4988 18.5404C17.4988 18.6245 17.4628 18.7078 17.391 18.7651C16.1507 19.7547 14.6324 20.4103 12.972 20.596C12.7986 20.6153 12.6502 20.4772 12.6502 20.3028L12.6502 16.3832ZM11.0979 16.079C11.2422 16.1108 11.3502 16.2354 11.3502 16.3833L11.3502 20.3028C11.3502 20.4772 11.2018 20.6153 11.0284 20.596C9.36804 20.4103 7.84968 19.7547 6.60948 18.7652C6.53765 18.7079 6.50162 18.6245 6.50162 18.5405C6.50162 18.4649 6.53075 18.3887 6.58917 18.3303L9.36068 15.5588C9.46516 15.4543 9.62954 15.4425 9.75405 15.522C10.1596 15.7812 10.6129 15.9723 11.0979 16.079Z"/></svg>

<svg xmlns="http://www.w3.org/2000/svg" fill="none" viewBox="0 0 24 24" focusable="false"><path fill="#74767B" fill-rule="evenodd" d="M11.35 7.61c0 .15-.11.27-.26.31-.48.1-.94.29-1.34.55-.13.08-.29.07-.39-.03L6.58 5.66a.3.3 0 0 1-.08-.21c0-.08.03-.16.1-.22a8.56 8.56 0 0 1 4.42-1.83c.18-.02.33.12.33.29zm3.28.83c-.1.1-.26.11-.39.03-.4-.26-.86-.45-1.34-.55a.32.32 0 0 1-.25-.31V3.69c0-.17.14-.31.32-.29 1.66.18 3.18.84 4.42 1.83.07.06.1.14.1.22s-.03.16-.08.21zm-6.19.92c.06.05.09.13.09.21q0 .09-.06.18c-.26.4-.45.86-.55 1.34-.04.15-.16.26-.31.26H3.69c-.16 0-.29-.14-.29-.29v-.04A8.56 8.56 0 0 1 5.23 6.6c.11-.13.31-.14.43-.02zm7.94 1.99c-.15 0-.27-.11-.31-.26-.1-.48-.29-.94-.55-1.34a.3.3 0 0 1-.05-.18c0-.08.03-.16.08-.21l2.78-2.78c.12-.12.32-.11.43.02a8.56 8.56 0 0 1 1.83 4.42v.04c0 .15-.13.29-.29.29zm-.83 3.28a.3.3 0 0 1-.08-.21c0-.06.01-.12.05-.18.26-.4.45-.86.55-1.34a.32.32 0 0 1 .31-.25h3.92c.16 0 .29.13.29.28v.04a8.56 8.56 0 0 1-1.83 4.42c-.11.13-.31.14-.43.02zm-7.08-.39c.04.06.05.12.05.18 0 .08-.02.16-.08.21l-2.78 2.78c-.12.12-.32.11-.43-.02a8.56 8.56 0 0 1-1.83-4.42v-.04c0-.15.13-.28.29-.28h3.92c.15 0 .27.1.31.25.1.48.29.94.55 1.34m4.18 2.14c0-.15.1-.27.25-.31.48-.1.94-.29 1.34-.55.13-.08.29-.07.39.03l2.78 2.78c.05.05.08.13.08.21s-.03.16-.1.22a8.56 8.56 0 0 1-4.42 1.83.287.287 0 0 1-.32-.29zm-1.56-.31c.15.04.26.16.26.31v3.92c0 .17-.15.31-.33.29a8.56 8.56 0 0 1-4.42-1.83.28.28 0 0 1-.1-.22c0-.08.03-.16.08-.21l2.78-2.78c.1-.1.26-.11.39-.03.4.26.86.45 1.34.55"/></svg>
